X: 50
T: Pizza and Apple Pies
C: Mike Richardson
O: Seattle, Washington
P: For Bob McQuillen
%R: jig
Z: Collected and edited 2014 by John Chambers <jc:trillian.mit.edu>
B: GEMS The Best of the Country Dance and Song Society Diamond Jubilee Music, Dance and Song Contest 1993 p.75 #2
M: 6/8
L: 1/8
K: G
% - - - - - - - - - - - - - - - - - - - - - - - - -
"D7"A |\
"G"B2B BAG | "B7"A2A AGF |\
"C"G2G GAB | "G"D3 G2F |\
"C"E2E EFG |[1 "G"D2D DGA |\
"Am"BcB BAG | "D7"A3 G2 :|
[2 "G"D2D DGB | "Am"ABc "D7"DEF |\
"G"G3 G2 || F |\
"Em"E2E GFE | "B7"F2F AGF |\
"Em"E^DE G2A | "B7"B3 ^D3 |\
"Em"E2E GFE | "B7"F2F AGF |
"Em"EFE "Am"C2E | "B7"B,3 ^D3 ||\
"Em"E2E GFE | "B7"F2F AGF |\
"Em"E^DE G2A | "G"B3 GAB |\
"C"c2e "Am"edc | "G"B2d "Em"dcB |\
"Am"ABc "D7"DEF | "G"G3 G2 |]
% - - - - - - - - - - - - - - - - - - - - - - - - -

